packages/design-system/site/assets/images/landing/icon-tutorial.svg

<?xml version="1.0" encoding="UTF-8" standalone="no"?>
<svg width="28px" height="31px" viewBox="0 0 28 31" version="1.1" xmlns="http://www.w3.org/2000/svg" xmlns:xlink="http://www.w3.org/1999/xlink" xmlns:sketch="http://www.bohemiancoding.com/sketch/ns">
    <!-- Generator: Sketch 3.3.3 (12081) - http://www.bohemiancoding.com/sketch -->
    <title>icon-tutorial</title>
    <desc>Created with Sketch.</desc>
    <defs>
        <path id="path-1" d="M16.0857544,7.52182708 C15.6829474,8.18001198 14.8979649,8.51385937 13.7529123,8.51385937 C7.70785965,8.51385937 7.26870175,13.0155437 7.26870175,15.1797958 C7.26870175,16.1668229 6.48077193,17.0177083 5.51157895,17.0177083 L5.35782456,17.0177083 C4.54042105,17.0177083 3.83501754,16.4015672 3.64245614,15.5902229 C3.42778947,14.6817776 2.84863158,14.1887646 2.28961404,13.7593177 C1.89024561,13.4534995 1.51396491,13.1651995 1.3037193,12.7312479 C0.75845614,11.6000708 0.200421053,10.2141286 0.201403509,8.50434948 C0.203859649,4.62331094 2.83684211,1.18973802 6.46210526,0.338852604 C7.12870175,0.183190625 7.80119298,0.104108333 8.46042105,0.104108333 C11.8027368,0.104108333 14.7967719,2.13522187 16.0887018,5.27749167 C16.1373333,5.37659479 16.6752281,6.558825 16.0857544,7.52182708"></path>
    </defs>
    <g id="Page-2" stroke="none" stroke-width="1" fill="none" fill-rule="evenodd" sketch:type="MSPage">
        <g id="desktop-1280" sketch:type="MSArtboardGroup" transform="translate(-1116.000000, -1518.000000)">
            <g id="tutorials" sketch:type="MSLayerGroup" transform="translate(798.000000, 1502.000000)">
                <g id="icon-tutorial" transform="translate(318.000000, 16.000000)">
                    <path d="M27.3029474,17.8595844 L23.7287719,12.44495 L23.7459649,12.0165042 C23.7459649,5.39261146 18.452,0.00400416667 11.9447018,0.00400416667 C11.0182456,0.00400416667 10.0790175,0.114619271 9.15305263,0.331344792 C3.93964912,1.55361667 0.152280702,6.46372604 0.148842105,12.0054927 C0.146877193,14.4545411 0.761403509,16.6538297 1.92512281,18.3646099 C3.97992982,21.3842521 5.37010526,23.7727375 4.54926316,27.0211177 C4.36210526,27.7633901 4.51487719,28.5286865 4.9682807,29.1253073 C5.4074386,29.7024078 6.07157895,30.03125 6.79024561,30.03125 L16.4536842,30.03125 C17.5741754,30.03125 18.5448421,29.2284146 18.7629474,28.1197609 C18.8037193,27.9110437 18.8430175,27.7368625 18.8774035,27.5046208 C18.9638596,26.919512 19.4649123,26.5276042 20.041614,26.5276042 L20.7288421,26.5276042 C21.7879298,26.5276042 22.7237193,25.8769271 23.0135439,24.8033099 C23.3279298,23.6360953 23.7135439,22.0229167 23.7729825,20.0208333 L26.348,20.0208333 C26.802386,20.0208333 27.2081404,19.6349318 27.4075789,19.218999 C27.6075088,18.8035667 27.5578947,18.1909292 27.3029474,17.8595844" id="Fill-1" fill="#F49755" sketch:type="MSShapeGroup"></path>
                    <g id="Group-9" transform="translate(3.438596, 3.503646)">
                        <mask id="mask-2" sketch:name="Clip 3" fill="white">
                            <use xlink:href="#path-1"></use>
                        </mask>
                        <g id="Clip-3"></g>
                        <path d="M16.0479298,-8.35319219 L-11.1744561,6.87014896 C-11.1744561,6.87014896 -11.7064561,7.17846979 -11.6853333,7.7936099 L5.87803509,8.32115885 L17.0112281,-8.35319219 C17.0112281,-8.35319219 16.5995789,-8.62397396 16.0479298,-8.35319219" id="Fill-2" fill="#FDBC8D" sketch:type="MSShapeGroup" mask="url(#mask-2)"></path>
                        <path d="M17.0112281,-8.35319219 L5.87803509,8.32115885 L16.9792982,25.4940286 C16.9792982,25.4940286 17.5712281,25.2297536 17.5859649,24.5665635 L17.5869474,-7.43974167 C17.5869474,-7.43974167 17.612,-8.00533021 17.0112281,-8.35319219" id="Fill-4" fill="#FCBC8D" sketch:type="MSShapeGroup" mask="url(#mask-2)"></path>
                        <path d="M16.9792982,25.4940286 L5.87803509,8.32115885 L-11.6853333,7.7936099 C-11.6853333,7.7936099 -11.7197193,8.25158646 -11.3026667,8.63298333 L16.050386,25.4850193 C16.050386,25.4850193 16.4684211,25.7277719 16.9792982,25.4940286" id="Fill-5" fill="#FCBC8D" sketch:type="MSShapeGroup" mask="url(#mask-2)"></path>
                        <path d="M5.87803509,8.32115885 L0.873403509,0.132638021 C0.873403509,0.132638021 -9.94442105,6.18193281 -10.3580351,6.41317344 C-10.7716491,6.64491458 -11.4765614,7.79961615 -10.0755789,7.8416599 C-8.67459649,7.88420417 5.87803509,8.32115885 5.87803509,8.32115885" id="Fill-6" fill="#FFD3B3" sketch:type="MSShapeGroup" mask="url(#mask-2)"></path>
                        <path d="M5.87803509,8.32115885 L0.655298246,16.0001495 C0.655298246,16.0001495 14.5904561,24.5855833 14.9352982,24.7978042 C15.697193,25.2672927 16.8535439,25.2988255 16.1196491,24.1636443 C15.3857544,23.028463 5.87803509,8.32115885 5.87803509,8.32115885" id="Fill-7" fill="#FFD3B3" sketch:type="MSShapeGroup" mask="url(#mask-2)"></path>
                        <path d="M5.87803509,8.32115885 L17.5864561,8.32115885 C17.5864561,8.32115885 17.5859649,-6.19194323 17.5864561,-6.81609271 C17.5869474,-7.43974167 16.9488421,-8.38622656 16.2306667,-7.18397552 C15.7207719,-6.33008698 5.87803509,8.32115885 5.87803509,8.32115885" id="Fill-8" fill="#FFD3B3" sketch:type="MSShapeGroup" mask="url(#mask-2)"></path>
                    </g>
                </g>
            </g>
        </g>
    </g>
</svg>

<svg width="28" height="31" xmlns="http://www.w3.org/2000/svg" xmlns:xlink="http://www.w3.org/1999/xlink"><defs><path id="a" d="M16.086 7.522c-.403.658-1.188.992-2.333.992-6.045 0-6.484 4.502-6.484 6.666 0 .987-.79 1.838-1.76 1.838h-.153c-.818 0-1.523-.616-1.716-1.428-.213-.908-.792-1.4-1.35-1.83-.4-.307-.777-.595-.987-1.03C.758 11.6.2 10.215.2 8.505.205 4.625 2.838 1.19 6.463.34 7.13.182 7.803.103 8.46.103c3.343 0 6.337 2.03 7.63 5.173.047.1.585 1.282-.004 2.245"/></defs><g fill="none" fill-rule="evenodd"><path d="M27.303 17.86l-3.574-5.415.015-.428c0-6.624-5.294-12.013-11.8-12.013-.928 0-1.867.11-2.793.327C3.94 1.556.152 6.466.15 12.007c-.003 2.45.61 4.65 1.775 6.36 2.055 3.02 3.445 5.408 2.624 8.656-.19.743-.036 1.51.417 2.105.44.577 1.104.906 1.822.906h9.663c1.12 0 2.09-.802 2.31-1.91.04-.21.08-.383.113-.615.087-.585.588-.977 1.165-.977h.688c1.058 0 1.994-.65 2.284-1.724.314-1.167.7-2.78.76-4.782h2.574c.454 0 .86-.385 1.06-.8.2-.416.15-1.03-.105-1.36" fill="#F49755"/><g transform="translate(3.44 3.504)"><mask id="b" fill="#fff"><use xlink:href="#a"/></mask><path d="M16.048-8.353L-11.174 6.87s-.532.308-.51.924l17.562.527L17.01-8.35s-.41-.27-.962 0" fill="#FDBC8D" mask="url(#b)"/><path d="M17.01-8.353L5.88 8.32l11.1 17.174s.593-.264.608-.927V-7.44s.026-.565-.575-.913m-.033 33.847L5.877 8.32l-17.563-.526s-.035.458.382.84l27.353 16.85s.417.244.93.01" fill="#FCBC8D" mask="url(#b)"/><path d="M5.878 8.32L.873.134l-11.23 6.28c-.415.232-1.12 1.387.28 1.43 1.402.04 15.955.478 15.955.478" fill="#FFD3B3" mask="url(#b)"/><path d="M5.878 8.32L.655 16l14.28 8.798c.762.47 1.92.5 1.185-.634L5.878 8.32m0 0h11.708V-6.815c0-.624-.637-1.57-1.355-.368C15.72-6.33 5.88 8.32 5.88 8.32" fill="#FFD3B3" mask="url(#b)"/></g></g></svg>
